X:1
T:Title
%%score { ( 1 3 ) | ( 2 4 ) }
L:1/8
Q:1/4=108
M:4/4
K:D
V:1 treble nm="Grand Piano"
V:3 treble 
V:2 bass 
V:4 bass 
V:1
 F2 F>E D2 F>[GB] | [FA]4 [A,DF]4 | D2 D>D [B,D]2 [B,G]2 | F6 z2 | F2 F>E D2 F>B | A4 F4 | %6
w: E.~Roser * * * * *||||||
 E2 E>E F2 ^G2 | [A,CA]4 z4 | A2 B>c d2 cB | A2 d2 A2 z2 | A2 Bc f3 e | e4 d4 | %12
w: ||||||
 [Bd]2 [Ac][GB] [DFA]2 [A,DF]2 | [A,D]2 [A,CE]2 F2 z2 | A2 FD A,2 [B,DG]2 | [A,DF]4[K:bass] [CE]4 | %16
w: ||||
 [D,F,D]6 z2 |] %17
w: |
V:2
 [D,A,D]2 [D,A,D]>[D,G,D] [D,F,]2 [D,A,D]>[D,D] | [D,,F,D]4 [D,,D,]4 | %2
 [D,F,A,]2 [D,F,A,]>[D,F,A,] [G,,G,]2 [G,,G,]2 | [D,A,D]6 z2 | %4
 [D,A,D]2 [D,A,D]>[D,G,D] [D,F,]2 [D,A,D]>[D,G,D] | [D,F,D]4 [D,A,D]4 | %6
 [E,A,C]2 [E,A,C]>[E,A,C] [E,^G,D]2 [E,B,D]2 | A,,4 z4 | F2 G>G F2 AG | F4 F2 z2 | %10
 [CG]2 [CG][CG] [A,A]3 [A,G] | [A,G]4 [DF]4 | G,2 G,G, D,2 D,2 | F,,2 A,,2 [D,A,D]2 z2 | %14
 [D,F,D]2 [D,A,D][D,F,] [D,F,]2 G,,2 | A,,4 z2 G,2 | D,,6 z2 |] %17
V:3
 x8 | x8 | x8 | x8 | x8 | x8 | x8 | x8 | x8 | x8 | x8 | x8 | x8 | x8 | x8 | z4[K:bass] A,2 z2 | %16
 x8 |] %17
V:4
 x8 | x8 | x8 | x8 | x8 | x8 | x8 | x8 | x8 | x8 | x8 | x8 | x8 | x8 | x8 | z4 A,,4 | x8 |] %17

